X:1
T:Title
%%score 1 2 3
L:1/8
M:3/2
K:C
V:1 treble nm="Part_1"
V:2 treble-8 nm="Part_2"
V:3 treble-8 nm="Part_3"
V:1
 E4 E4 E2 F2 | G4 A6 G2 | B4 c6 B2 | G4 B6 A2 | A2 E2 A2 G4 F2 | A4 A4 F4 | D2 E2 ^F6 E2 | %7
 G4 E6 D2 | D2 A,2 D2 C4 B,2 | D4 z4 F2 G2 | A4 F4 G2 F2 | E4 D4 G4 | G4 F6 E2 | E6 D2 D2 C2 | %14
 E4 z4 E2 D2 | C4 A,4 C4- | C4 B,8 | A,12 | z12 | z4 z4 G4 | A6 G2 E4 | F4 G6 F2 | A4 _B6 A2 | %23
 A6 G2 G2 F2 | A4 F4 z4 | E4 E2 D2 B,2 C2 | D2 B,2 A,4 B,2 C2 | D2 E2 F6 E2 | G4 E6 D2 | %29
 D2 A,2 D2 C4 B,2 | D12 |] %31
V:2
 A8 A2 F2 | E4 D8 | G4 A8 | B4 d8 | c4 B8 | A8 A4 | F4 D8 | E4 G8 | F4 E8 | D12 | z12 | G8 G4 | %12
 E4 D4 G4- | G4 F8 | E12 | z12 | z4 z4 d4 | e8 e2 d2 | c4 A4 c4- | c4 B8 | A8 c4 | d4 e8 | d8 c4- | %23
 c4 B8 | A12 | G8 z4 | G4 A8 | F4 D8 | E4 G8 | F4 E8 | D12 |] %31
V:3
 A4 c6 B2 | c4 d8 | G4 F8 | E4 D4 G4 | A4 E6 D2 | F4 D8 | A4 z2 d4 c2 | c4 B6 A2 | A4 G8 | %9
 A8 d2 c2 | A8 G4 | B8 B4 | c4 d4 B2 c2 | B4 A8 | z4 B6 A2 | A2 G2 F4 E4 | A4 d6 c2 | c4 z4 c2 B2 | %18
 A4 F4 A4- | A4 E8 | F4 A8 | D4 C8 | F4 G4 A4- | A4 d8 | D8 F4 | C8 E4 | z4 F4 D4 | A4 z2 d4 B2 | %28
 c4 B6 A2 | A4 G8 | A12 |] %31

